;FLAVOR:Marlin
;TIME:155
;Filament used: 0.0498098m
;Layer height: 0.175
;MINX:57.7
;MINY:57.7
;MINZ:0.263
;MAXX:62.3
;MAXY:62.3
;MAXZ:4.988
;Generated with Cura_SteamEngine 5.2.2
M140 S70 ;set bed temp. don't wait
M105 ;report temperature
M190 S70 ; wait for bed temp
M104 S116 ; set hotend temp
M105 ; report temp
M109 S116 ; wait for hotend temp
M82 ;absolute extrusion mode
G21;(metric values)
G90;(absolute positioning)
M82;(set extruder to absolute mode)
M107;(start with the fan off)
G28;(Home the printer)
G92 E0;(Reset the extruder to 0). Use G92 X0 Y0 Z0 to zero other coordinates
G0 Z5 E5 F500;(Move up and prime the nozzle)
G0 X-1 Z0;(Move outside the printable area)
G1 Y60 E8 F500;(Draw a priming/wiping line to the rear)
G1 X-1;(Move a little closer to the print area)
G1 Y10 E16 F500;(draw more priming/wiping)
G1 E15 F250;(Small retract)
G92 E0;(Zero the extruder)
G92 E0
G92 E0
;LAYER_COUNT:28
;LAYER:0
M107
;MESH:Just a box.stl
G0 F4320 X58.375 Y58.375 Z0.263 ; extrusion speed 4320, goto x58.. y58.. z 0.263
;TYPE:WALL-INNER
G1 F1164.9 X58.375 Y61.625 E0.12438
G1 X61.625 Y61.625 E0.24875
G1 X61.625 Y58.375 E0.37313
G1 X59.069 Y58.375 E0.47095
G0 F1048.4 X58.375 Y58.375
G0 F4320 X58.025 Y58.025
G1 F1164.9 X58.025 Y61.975 E0.62212
G1 X61.975 Y61.975 E0.77328
G1 X61.975 Y58.025 E0.92445
G1 X58.719 Y58.025 E1.04906
G0 F1048.4 X58.025 Y58.025
G0 F4320 X57.7 Y57.7
;TYPE:WALL-OUTER
G1 F1164.9 X57.7 Y62.3 E1.2251
G1 X62.3 Y62.3 E1.40114
G1 X62.3 Y57.7 E1.57718
G1 X58.394 Y57.7 E1.72666
G0 F1048.4 X57.7 Y57.7
G0 F4320 X57.7 Y57.9
G0 X58.345 Y58.345
G0 X58.707 Y58.707
M104 S111
;TYPE:SKIN
G1 F1164.9 X58.707 Y61.293 E1.82563
G1 X61.293 Y61.293 E1.9246
G1 X61.293 Y58.707 E2.02356
G1 X59.28 Y58.707 E2.1006
G0 F1048.4 X58.707 Y58.707
G0 F4320 X58.45 Y58.707
G0 X61.478 Y58.522
G0 X61.117 Y59.137
G1 F1164.9 X60.861 Y58.881 E2.11445
G0 F4320 X60.366 Y58.881
G1 F1164.9 X61.117 Y59.632 E2.1551
G0 F4320 X61.117 Y60.127
G1 F1164.9 X59.871 Y58.881 E2.22254
G0 F4320 X59.376 Y58.881
G1 F1164.9 X61.117 Y60.622 E2.31676
G0 F4320 X61.117 Y61.117
G1 F1164.9 X58.881 Y58.881 E2.43778
G0 F4320 X58.881 Y59.376
G1 F1164.9 X60.622 Y61.117 E2.532
G0 F4320 X60.127 Y61.117
G1 F1164.9 X58.881 Y59.871 E2.59944
G0 F4320 X58.881 Y60.366
G1 F1164.9 X59.632 Y61.117 E2.64009
G0 F4320 X59.137 Y61.117
G1 F1164.9 X58.881 Y60.861 E2.65394
;MESH:NONMESH
G0 F90 X58.881 Y60.861 Z0.438
G0 F4320 X58.45 Y60.861
G0 X58.375 Y58.375
;TIME_ELAPSED:5.864979
;LAYER:1
M140 S112
;TYPE:WALL-INNER
;MESH:Just a box.stl
G1 F1097.2 X58.375 Y61.625 E2.7367
G1 X61.625 Y61.625 E2.81946
G1 X61.625 Y58.375 E2.90222
G1 X59.095 Y58.375 E2.96665
G0 F987.5 X58.375 Y58.375
G0 F5760 X58.025 Y58.025
G1 F1097.2 X58.025 Y61.975 E3.06723
G1 X61.975 Y61.975 E3.16782
G1 X61.975 Y58.025 E3.26841
G1 X58.9 Y58.025 E3.34671
G0 F987.5 X58.025 Y58.025
G0 F5760 X57.7 Y57.7
;TYPE:WALL-OUTER
G1 F925.8 X57.7 Y62.3 E3.46385
G1 X62.3 Y62.3 E3.58099
G1 X62.3 Y57.7 E3.69812
G1 X58.719 Y57.7 E3.78931
G0 F833.2 X57.7 Y57.7
G0 F5760 X57.7 Y57.9
G0 X58.345 Y58.345
G0 X58.707 Y58.707
;TYPE:SKIN
G1 F685.8 X58.707 Y61.293 E3.85517
G1 X61.293 Y61.293 E3.92102
G1 X61.293 Y58.707 E3.98687
G1 X59.28 Y58.707 E4.03813
G0 F617.2 X58.707 Y58.707
G0 F5760 X58.881 Y59.417
G1 F685.8 X59.417 Y58.881 E4.05743
G0 F5760 X59.912 Y58.881
G1 F685.8 X58.881 Y59.912 E4.09456
G0 F5760 X58.881 Y60.407
G1 F685.8 X60.407 Y58.881 E4.14952
G0 F5760 X60.902 Y58.881
G1 F685.8 X58.881 Y60.902 E4.2223
G0 F5760 X59.161 Y61.117
G1 F685.8 X61.117 Y59.161 E4.29274
G0 F5760 X61.117 Y59.656
G1 F685.8 X59.656 Y61.117 E4.34535
G0 F5760 X60.151 Y61.117
G1 F685.8 X61.117 Y60.151 E4.38014
G0 F5760 X61.117 Y60.646
G1 F685.8 X60.646 Y61.117 E4.3971
;MESH:NONMESH
G0 F90 X60.646 Y61.117 Z0.613
G0 F5760 X60.646 Y61.55
G0 X58.522 Y61.478
G0 X58.375 Y58.375
;TIME_ELAPSED:11.648831
;LAYER:2
;TYPE:WALL-INNER
;MESH:Just a box.stl
G1 F1500 X58.375 Y60 E4.43848
G1 X58.375 Y61.625 E4.47987
G1 X61.625 Y61.625 E4.56263
G1 X61.625 Y58.375 E4.64539
G1 X59.215 Y58.375 E4.70676
G0 F1350 X58.375 Y58.375
G0 F7200 X58.025 Y58.025
G1 F1500 X58.025 Y60 E4.75705
G1 X58.025 Y61.975 E4.80734
G1 X61.975 Y61.975 E4.90793
G1 X61.975 Y58.025 E5.00851
G1 X59.046 Y58.025 E5.0831
G0 F1350 X58.025 Y58.025
G0 F7200 X57.7 Y57.7
;TYPE:WALL-OUTER
G1 F1125 X57.7 Y60 E5.14167
G1 X57.7 Y62.3 E5.20024
G1 X62.3 Y62.3 E5.31738
G1 X62.3 Y57.7 E5.43451
G1 X58.742 Y57.7 E5.52512
G0 F1012.5 X57.7 Y57.7
G0 F7200 X57.7 Y57.9
G0 X58.345 Y58.345
G0 X58.707 Y58.707
;TYPE:SKIN
G1 F600 X58.707 Y61.293 E5.59097
G1 X61.293 Y61.293 E5.65682
G1 X61.293 Y58.707 E5.72267
G1 X59.28 Y58.707 E5.77393
G0 F540 X58.707 Y58.707
G0 F7200 X58.45 Y58.707
G0 X61.478 Y58.522
G0 X61.117 Y59.137
G1 F600 X60.861 Y58.881 E5.78315
G0 F7200 X60.366 Y58.881
G1 F600 X61.117 Y59.632 E5.8102
G0 F7200 X61.117 Y60.127
G1 F600 X59.871 Y58.881 E5.85507
G0 F7200 X59.376 Y58.881
G1 F600 X61.117 Y60.622 E5.91777
G0 F7200 X61.117 Y61.117
G1 F600 X58.881 Y58.881 E5.99829
G0 F7200 X58.881 Y59.376
G1 F600 X60.622 Y61.117 E6.06099
G0 F7200 X60.127 Y61.117
G1 F600 X58.881 Y59.871 E6.10586
G0 F7200 X58.881 Y60.366
G1 F600 X59.632 Y61.117 E6.13291
G0 F7200 X59.137 Y61.117
G1 F600 X58.881 Y60.861 E6.14213
;MESH:NONMESH
G0 F90 X58.881 Y60.861 Z0.788
G0 F7200 X58.45 Y60.861
G0 X58.375 Y58.375
;TIME_ELAPSED:17.268152
;LAYER:3
;TYPE:WALL-INNER
;MESH:Just a box.stl
G1 F1500 X58.375 Y61.625 E6.22489
G1 X61.625 Y61.625 E6.30765
G1 X61.625 Y58.375 E6.39041
G1 X59.095 Y58.375 E6.45484
G0 F1350 X58.375 Y58.375
G0 F7200 X58.025 Y58.025
G1 F1500 X58.025 Y61.975 E6.55542
G1 X61.975 Y61.975 E6.65601
G1 X61.975 Y58.025 E6.75659
G1 X58.9 Y58.025 E6.8349
G0 F1350 X58.025 Y58.025
G0 F7200 X57.7 Y57.7
;TYPE:WALL-OUTER
G1 F1125 X57.7 Y62.3 E6.95204
G1 X62.3 Y62.3 E7.06917
G1 X62.3 Y57.7 E7.18631
G1 X58.719 Y57.7 E7.2775
G0 F1012.5 X57.7 Y57.7
G0 F7200 X57.7 Y57.9
G0 X58.345 Y58.345
G0 X58.707 Y58.707
;TYPE:SKIN
G1 F600 X58.707 Y61.293 E7.34335
G1 X61.293 Y61.293 E7.40921
G1 X61.293 Y58.707 E7.47506
G1 X59.28 Y58.707 E7.52632
G0 F540 X58.707 Y58.707
G0 F7200 X58.881 Y59.417
G1 F600 X59.417 Y58.881 E7.54562
G0 F7200 X59.912 Y58.881
G1 F600 X58.881 Y59.912 E7.58275
G0 F7200 X58.881 Y60.407
G1 F600 X60.407 Y58.881 E7.63771
G0 F7200 X60.902 Y58.881
G1 F600 X58.881 Y60.902 E7.71049
G0 F7200 X59.161 Y61.117
G1 F600 X61.117 Y59.161 E7.78093
G0 F7200 X61.117 Y59.656
G1 F600 X59.656 Y61.117 E7.83354
G0 F7200 X60.151 Y61.117
G1 F600 X61.117 Y60.151 E7.86833
G0 F7200 X61.117 Y60.646
G1 F600 X60.646 Y61.117 E7.88529
;MESH:NONMESH
G0 F90 X60.646 Y61.117 Z0.963
G0 F7200 X60.646 Y61.55
G0 X58.522 Y61.478
G0 X58.375 Y58.375
;TIME_ELAPSED:22.770053
;LAYER:4
;TYPE:WALL-INNER
;MESH:Just a box.stl
G1 F1500 X58.375 Y61.625 E7.96805
G1 X61.625 Y61.625 E8.05081
G1 X61.625 Y58.375 E8.13357
G1 X59.095 Y58.375 E8.198
G0 F1350 X58.375 Y58.375
G0 F7200 X58.025 Y58.025
G1 F1500 X58.025 Y61.975 E8.29859
G1 X61.975 Y61.975 E8.39917
G1 X61.975 Y58.025 E8.49976
G1 X58.9 Y58.025 E8.57806
G0 F1350 X58.025 Y58.025
G0 F7200 X57.7 Y57.7
;TYPE:WALL-OUTER
G1 F1125 X57.7 Y62.3 E8.6952
G1 X62.3 Y62.3 E8.81234
G1 X62.3 Y57.7 E8.92948
G1 X58.719 Y57.7 E9.02067
G0 F1012.5 X57.7 Y57.7
G0 F7200 X57.7 Y57.9
G0 X58.345 Y58.345
G0 X58.707 Y58.707
;TYPE:SKIN
G1 F600 X58.707 Y61.293 E9.08652
G1 X61.293 Y61.293 E9.15237
G1 X61.293 Y58.707 E9.21822
G1 X59.28 Y58.707 E9.26948
G0 F540 X58.707 Y58.707
G0 F7200 X58.45 Y58.707
G0 X61.478 Y58.522
G0 X61.117 Y59.137
G1 F600 X60.861 Y58.881 E9.2787
G0 F7200 X60.366 Y58.881
G1 F600 X61.117 Y59.632 E9.30575
G0 F7200 X61.117 Y60.127
G1 F600 X59.871 Y58.881 E9.35062
G0 F7200 X59.376 Y58.881
G1 F600 X61.117 Y60.622 E9.41332
G0 F7200 X61.117 Y61.117
G1 F600 X58.881 Y58.881 E9.49384
G0 F7200 X58.881 Y59.376
G1 F600 X60.622 Y61.117 E9.55654
G0 F7200 X60.127 Y61.117
G1 F600 X58.881 Y59.871 E9.60141
G0 F7200 X58.881 Y60.366
G1 F600 X59.632 Y61.117 E9.62846
G0 F7200 X59.137 Y61.117
G1 F600 X58.881 Y60.861 E9.63768
;MESH:NONMESH
G0 F90 X58.881 Y60.861 Z1.138
G0 F7200 X58.45 Y60.861
G0 X58.375 Y58.375
;TIME_ELAPSED:28.388055
;LAYER:5
;TYPE:WALL-INNER
;MESH:Just a box.stl
G1 F1500 X58.375 Y61.625 E9.72044
G1 X61.625 Y61.625 E9.8032
G1 X61.625 Y58.375 E9.88596
G1 X59.095 Y58.375 E9.95038
G0 F1350 X58.375 Y58.375
G0 F7200 X58.025 Y58.025
G1 F1500 X58.025 Y61.975 E10.05097
G1 X61.975 Y61.975 E10.15155
G1 X61.975 Y58.025 E10.25214
G1 X58.9 Y58.025 E10.33044
G0 F1350 X58.025 Y58.025
G0 F7200 X57.7 Y57.7
;TYPE:WALL-OUTER
G1 F1125 X57.7 Y62.3 E10.44758
G1 X62.3 Y62.3 E10.56472
G1 X62.3 Y57.7 E10.68186
G1 X58.719 Y57.7 E10.77305
G0 F1012.5 X57.7 Y57.7
G0 F7200 X57.7 Y57.9
G0 X58.345 Y58.345
G0 X58.707 Y58.707
;TYPE:SKIN
G1 F600 X58.707 Y61.293 E10.8389
G1 X61.293 Y61.293 E10.90475
G1 X61.293 Y58.707 E10.9706
G1 X59.28 Y58.707 E11.02186
G0 F540 X58.707 Y58.707
G0 F7200 X58.881 Y59.417
G1 F600 X59.417 Y58.881 E11.04117
G0 F7200 X59.912 Y58.881
G1 F600 X58.881 Y59.912 E11.0783
G0 F7200 X58.881 Y60.407
G1 F600 X60.407 Y58.881 E11.13325
G0 F7200 X60.902 Y58.881
G1 F600 X58.881 Y60.902 E11.20603
G0 F7200 X59.161 Y61.117
G1 F600 X61.117 Y59.161 E11.27647
G0 F7200 X61.117 Y59.656
G1 F600 X59.656 Y61.117 E11.32909
G0 F7200 X60.151 Y61.117
G1 F600 X61.117 Y60.151 E11.36388
G0 F7200 X61.117 Y60.646
G1 F600 X60.646 Y61.117 E11.38084
;MESH:NONMESH
G0 F90 X60.646 Y61.117 Z1.313
G0 F7200 X60.646 Y61.55
G0 X58.522 Y61.478
G0 X58.375 Y58.375
;TIME_ELAPSED:33.889957
;LAYER:6
;TYPE:WALL-INNER
;MESH:Just a box.stl
G1 F1500 X58.375 Y61.625 E11.4636
G1 X61.625 Y61.625 E11.54636
G1 X61.625 Y58.375 E11.62912
G1 X59.095 Y58.375 E11.69355
G0 F1350 X58.375 Y58.375
G0 F7200 X58.025 Y58.025
G1 F1500 X58.025 Y61.975 E11.79413
G1 X61.975 Y61.975 E11.89472
G1 X61.975 Y58.025 E11.9953
G1 X58.9 Y58.025 E12.07361
G0 F1350 X58.025 Y58.025
G0 F7200 X57.7 Y57.7
;TYPE:WALL-OUTER
G1 F1125 X57.7 Y62.3 E12.19075
G1 X62.3 Y62.3 E12.30788
G1 X62.3 Y57.7 E12.42502
G1 X58.719 Y57.7 E12.51621
G0 F1012.5 X57.7 Y57.7
G0 F7200 X57.7 Y57.9
G0 X58.345 Y58.345
G0 X58.707 Y58.707
;TYPE:SKIN
G1 F600 X58.707 Y61.293 E12.58206
G1 X61.293 Y61.293 E12.64792
G1 X61.293 Y58.707 E12.71377
G1 X59.28 Y58.707 E12.76503
G0 F540 X58.707 Y58.707
G0 F7200 X58.45 Y58.707
G0 X61.478 Y58.522
G0 X61.117 Y59.137
G1 F600 X60.861 Y58.881 E12.77425
G0 F7200 X60.366 Y58.881
G1 F600 X61.117 Y59.632 E12.80129
G0 F7200 X61.117 Y60.127
G1 F600 X59.871 Y58.881 E12.84617
G0 F7200 X59.376 Y58.881
G1 F600 X61.117 Y60.622 E12.90886
G0 F7200 X61.117 Y61.117
G1 F600 X58.881 Y58.881 E12.98939
G0 F7200 X58.881 Y59.376
G1 F600 X60.622 Y61.117 E13.05209
G0 F7200 X60.127 Y61.117
G1 F600 X58.881 Y59.871 E13.09696
G0 F7200 X58.881 Y60.366
G1 F600 X59.632 Y61.117 E13.124
G0 F7200 X59.137 Y61.117
G1 F600 X58.881 Y60.861 E13.13322
;MESH:NONMESH
G0 F90 X58.881 Y60.861 Z1.488
G0 F7200 X58.45 Y60.861
G0 X58.375 Y58.375
;TIME_ELAPSED:39.507959
;LAYER:7
;TYPE:WALL-INNER
;MESH:Just a box.stl
G1 F1500 X58.375 Y61.625 E13.21598
G1 X61.625 Y61.625 E13.29874
G1 X61.625 Y58.375 E13.3815
G1 X59.095 Y58.375 E13.44593
G0 F1350 X58.375 Y58.375
G0 F7200 X58.025 Y58.025
G1 F1500 X58.025 Y61.975 E13.54652
G1 X61.975 Y61.975 E13.6471
G1 X61.975 Y58.025 E13.74769
G1 X58.9 Y58.025 E13.82599
G0 F1350 X58.025 Y58.025
G0 F7200 X57.7 Y57.7
;TYPE:WALL-OUTER
G1 F1125 X57.7 Y62.3 E13.94313
G1 X62.3 Y62.3 E14.06027
G1 X62.3 Y57.7 E14.17741
G1 X58.719 Y57.7 E14.2686
G0 F1012.5 X57.7 Y57.7
G0 F7200 X57.7 Y57.9
G0 X58.345 Y58.345
G0 X58.707 Y58.707
;TYPE:SKIN
G1 F600 X58.707 Y61.293 E14.33445
G1 X61.293 Y61.293 E14.4003
G1 X61.293 Y58.707 E14.46615
G1 X59.28 Y58.707 E14.51741
G0 F540 X58.707 Y58.707
G0 F7200 X58.881 Y59.417
G1 F600 X59.417 Y58.881 E14.53671
G0 F7200 X59.912 Y58.881
G1 F600 X58.881 Y59.912 E14.57384
G0 F7200 X58.881 Y60.407
G1 F600 X60.407 Y58.881 E14.6288
G0 F7200 X60.902 Y58.881
G1 F600 X58.881 Y60.902 E14.70158
G0 F7200 X59.161 Y61.117
G1 F600 X61.117 Y59.161 E14.77202
G0 F7200 X61.117 Y59.656
G1 F600 X59.656 Y61.117 E14.82464
G0 F7200 X60.151 Y61.117
G1 F600 X61.117 Y60.151 E14.85942
G0 F7200 X61.117 Y60.646
G1 F600 X60.646 Y61.117 E14.87639
;MESH:NONMESH
G0 F90 X60.646 Y61.117 Z1.663
G0 F7200 X60.646 Y61.55
G0 X58.522 Y61.478
G0 X58.375 Y58.375
;TIME_ELAPSED:45.009861
;LAYER:8
;TYPE:WALL-INNER
;MESH:Just a box.stl
G1 F1500 X58.375 Y61.625 E14.95915
G1 X61.625 Y61.625 E15.04191
G1 X61.625 Y58.375 E15.12467
G1 X59.095 Y58.375 E15.18909
G0 F1350 X58.375 Y58.375
G0 F7200 X58.025 Y58.025
G1 F1500 X58.025 Y61.975 E15.28968
G1 X61.975 Y61.975 E15.39027
G1 X61.975 Y58.025 E15.49085
G1 X58.9 Y58.025 E15.56916
G0 F1350 X58.025 Y58.025
G0 F7200 X57.7 Y57.7
;TYPE:WALL-OUTER
G1 F1125 X57.7 Y62.3 E15.68629
G1 X62.3 Y62.3 E15.80343
G1 X62.3 Y57.7 E15.92057
G1 X58.719 Y57.7 E16.01176
G0 F1012.5 X57.7 Y57.7
G0 F7200 X57.7 Y57.9
G0 X58.345 Y58.345
G0 X58.707 Y58.707
;TYPE:SKIN
G1 F600 X58.707 Y61.293 E16.07761
G1 X61.293 Y61.293 E16.14346
G1 X61.293 Y58.707 E16.20931
G1 X59.28 Y58.707 E16.26058
G0 F540 X58.707 Y58.707
G0 F7200 X58.45 Y58.707
G0 X61.478 Y58.522
G0 X61.117 Y59.137
G1 F600 X60.861 Y58.881 E16.26979
G0 F7200 X60.366 Y58.881
G1 F600 X61.117 Y59.632 E16.29684
G0 F7200 X61.117 Y60.127
G1 F600 X59.871 Y58.881 E16.34171
G0 F7200 X59.376 Y58.881
G1 F600 X61.117 Y60.622 E16.40441
G0 F7200 X61.117 Y61.117
G1 F600 X58.881 Y58.881 E16.48493
G0 F7200 X58.881 Y59.376
G1 F600 X60.622 Y61.117 E16.54763
G0 F7200 X60.127 Y61.117
G1 F600 X58.881 Y59.871 E16.5925
G0 F7200 X58.881 Y60.366
G1 F600 X59.632 Y61.117 E16.61955
G0 F7200 X59.137 Y61.117
G1 F600 X58.881 Y60.861 E16.62877
;MESH:NONMESH
G0 F90 X58.881 Y60.861 Z1.838
G0 F7200 X58.45 Y60.861
G0 X58.375 Y58.375
;TIME_ELAPSED:50.627863
;LAYER:9
;TYPE:WALL-INNER
;MESH:Just a box.stl
G1 F1500 X58.375 Y61.625 E16.71153
G1 X61.625 Y61.625 E16.79429
G1 X61.625 Y58.375 E16.87705
G1 X59.095 Y58.375 E16.94148
G0 F1350 X58.375 Y58.375
G0 F7200 X58.025 Y58.025
G1 F1500 X58.025 Y61.975 E17.04206
G1 X61.975 Y61.975 E17.14265
G1 X61.975 Y58.025 E17.24323
G1 X58.9 Y58.025 E17.32154
G0 F1350 X58.025 Y58.025
G0 F7200 X57.7 Y57.7
;TYPE:WALL-OUTER
G1 F1125 X57.7 Y62.3 E17.43868
G1 X62.3 Y62.3 E17.55581
G1 X62.3 Y57.7 E17.67295
G1 X58.719 Y57.7 E17.76414
G0 F1012.5 X57.7 Y57.7
G0 F7200 X57.7 Y57.9
G0 X58.345 Y58.345
G0 X58.707 Y58.707
;TYPE:SKIN
G1 F600 X58.707 Y61.293 E17.82999
G1 X61.293 Y61.293 E17.89585
G1 X61.293 Y58.707 E17.9617
G1 X59.28 Y58.707 E18.01296
G0 F540 X58.707 Y58.707
G0 F7200 X58.881 Y59.417
G1 F600 X59.417 Y58.881 E18.03226
G0 F7200 X59.912 Y58.881
G1 F600 X58.881 Y59.912 E18.06939
G0 F7200 X58.881 Y60.407
G1 F600 X60.407 Y58.881 E18.12435
G0 F7200 X60.902 Y58.881
G1 F600 X58.881 Y60.902 E18.19713
G0 F7200 X59.161 Y61.117
G1 F600 X61.117 Y59.161 E18.26757
G0 F7200 X61.117 Y59.656
G1 F600 X59.656 Y61.117 E18.32018
G0 F7200 X60.151 Y61.117
G1 F600 X61.117 Y60.151 E18.35497
G0 F7200 X61.117 Y60.646
G1 F600 X60.646 Y61.117 E18.37193
;MESH:NONMESH
G0 F90 X60.646 Y61.117 Z2.013
G0 F7200 X60.646 Y61.55
G0 X58.522 Y61.478
G0 X58.375 Y58.375
;TIME_ELAPSED:56.129765
;LAYER:10
;TYPE:WALL-INNER
;MESH:Just a box.stl
G1 F1500 X58.375 Y61.625 E18.45469
G1 X61.625 Y61.625 E18.53745
G1 X61.625 Y58.375 E18.62021
G1 X59.095 Y58.375 E18.68464
G0 F1350 X58.375 Y58.375
G0 F7200 X58.025 Y58.025
G1 F1500 X58.025 Y61.975 E18.78523
G1 X61.975 Y61.975 E18.88581
G1 X61.975 Y58.025 E18.9864
G1 X58.9 Y58.025 E19.0647
G0 F1350 X58.025 Y58.025
G0 F7200 X57.7 Y57.7
;TYPE:WALL-OUTER
G1 F1125 X57.7 Y62.3 E19.18184
G1 X62.3 Y62.3 E19.29898
G1 X62.3 Y57.7 E19.41612
G1 X58.719 Y57.7 E19.50731
G0 F1012.5 X57.7 Y57.7
G0 F7200 X57.7 Y57.9
G0 X58.345 Y58.345
G0 X58.707 Y58.707
;TYPE:SKIN
G1 F600 X58.707 Y61.293 E19.57316
G1 X61.293 Y61.293 E19.63901
G1 X61.293 Y58.707 E19.70486
G1 X59.28 Y58.707 E19.75612
G0 F540 X58.707 Y58.707
G0 F7200 X58.45 Y58.707
G0 X61.478 Y58.522
G0 X61.117 Y59.137
G1 F600 X60.861 Y58.881 E19.76534
G0 F7200 X60.366 Y58.881
G1 F600 X61.117 Y59.632 E19.79239
G0 F7200 X61.117 Y60.127
G1 F600 X59.871 Y58.881 E19.83726
G0 F7200 X59.376 Y58.881
G1 F600 X61.117 Y60.622 E19.89996
G0 F7200 X61.117 Y61.117
G1 F600 X58.881 Y58.881 E19.98048
G0 F7200 X58.881 Y59.376
